Origami/64x64/apps/applications-development-web.svg

<svg width="64" height="64" version="1" xmlns="http://www.w3.org/2000/svg">
 <path d="m4.2412762 32.190476c-0.0118 0.334-0.0508 0.662-0.0508 1 0 15.512 12.488 28 28 28s28-12.488 28-28c0-0.33768-0.03904-0.66528-0.05078-1-0.528 15.042-12.776 27-27.95 27-15.1744 0-27.422-11.958-27.95-27z" style="opacity:.2"/>
 <rect transform="matrix(0,-1,-1,0,0,0)" x="-60" y="-60" width="56" height="56" rx="28" ry="28" style="fill:#02a8f3"/>
 <path d="m32 13a20 20 0 0 0 -20 20 20 20 0 0 0 18 19.878906v0.121094h2a20 20 0 0 0 20 -20 20 20 0 0 0 -20 -20zm2 4.140625a16 16 0 0 1 0.380859 0.05664c0.122171 0.202679 1.365542 2.335419 2.572266 5.574218-0.910097 0.081946-1.897302 0.139204-2.953125 0.175783v-5.806641zm-4 0.0059v5.800782c-1.055823-0.03658-2.043028-0.09384-2.953125-0.175782 1.209417-3.246027 2.459081-5.38595 2.576172-5.580078a16 16 0 0 1 0.376953 -0.044963zm9.785156 1.882813a16 16 0 0 1 3.5625 2.703125c-0.606583 0.157041-1.404786 0.324974-2.294922 0.490234-0.415982-1.201897-0.846631-2.244125-1.267578-3.193359zm-15.578125 0.01953c-0.418406 0.944776-0.846555 1.979938-1.259765 3.173828-0.888392-0.164937-1.685062-0.331489-2.291016-0.488281a16 16 0 0 1 3.550781 -2.685547zm-6.126953 6.083984c0.728933 0.234701 1.936161 0.569886 3.75 0.925782-0.360625 1.556835-0.628061 3.218954-0.751953 4.941366h-4.9375a16 16 0 0 1 1.939453 -5.867188zm27.832031 0.0039a16 16 0 0 1 1.941407 5.863248h-4.931641c-0.123892-1.722412-0.391328-3.384531-0.751953-4.941406 1.802677-0.353706 3.010742-0.686903 3.742187-0.921875zm-20.085937 1.533203c1.254831 0.1375 2.675524 0.223783 4.173828 0.27539v4.054655h-4.902344c0.129692-1.498916 0.389921-2.954777 0.728516-4.330078zm12.347656 0c0.338595 1.375268 0.598824 2.831129 0.728516 4.330045h-4.902344v-4.054688c1.498304-0.05161 2.918997-0.13789 4.173828-0.27539zm-22.027344 8.330045h4.931641c0.135348 1.881675 0.448445 3.683694 0.859375 5.363281-1.467797 0.417796-2.625403 0.841569-3.449219 1.197266a16 16 0 0 1 -2.341797 -6.560547zm8.951172 0h4.902344v4.054688c-1.493765 0.0749-2.875234 0.227082-4.134766 0.429687-0.357149-1.42054-0.632992-2.9289-0.767578-4.484375zm8.902344 0h4.902344c-0.134586 1.555475-0.410429 3.063835-0.767578 4.484375-1.259532-0.202605-2.641001-0.354783-4.134766-0.429687v-4.054688zm8.921875 0h4.9375a16 16 0 0 1 -2.361328 6.556641c-0.823037-0.354774-1.975179-0.777678-3.435547-1.19336 0.41093-1.679587 0.724027-3.481606 0.859375-5.363281zm-12.921875 8.056641v5.802734a16 16 0 0 1 -0.380859 -0.05664c-0.120996-0.200732-1.341959-2.29045-2.539063-5.478516 0.899699-0.121662 1.872378-0.213489 2.919922-0.267578zm4 0c1.047544 0.05409 2.020223 0.145916 2.919922 0.267578-1.199802 3.19525-2.427001 5.292109-2.542969 5.484375a16 16 0 0 1 -0.376953 0.044922v-5.796875zm-10.925781 1.091797c0.377565 1.058011 0.762787 1.97024 1.140625 2.822265a16 16 0 0 1 -3.042969 -2.21875c0.529938-0.197716 1.175422-0.399962 1.902344-0.603515zm17.851562 0c0.728636 0.204033 1.37553 0.407345 1.90625 0.605468a16 16 0 0 1 -3.039062 2.197266c0.37527-0.847374 0.758049-1.752575 1.132812-2.802734z" style="fill-rule:evenodd;opacity:.2"/>
 <path d="m28 49s-5-8-5-17 5-17 5-17" style="fill:none;stroke-width:4;stroke:#ffffff"/>
 <path d="m35.999997 49s5-8 5-17-5-17-5-17" style="fill:none;stroke-width:4;stroke:#ffffff"/>
 <path d="m18 22s5 2 14 2 14-2 14-2" style="fill:none;stroke-width:4;stroke:#ffffff"/>
 <path d="m18 43.000014s5-3 14-3 14 3 14 3" style="fill:none;stroke-width:4;stroke:#ffffff"/>
 <path d="m32 14v36" style="fill:none;stroke-width:4;stroke:#ffffff"/>
 <path d="m14 32h36" style="fill:none;stroke-width:4;stroke:#ffffff"/>
 <path d="m32 12a20 20 0 0 0 -20 20 20 20 0 0 0 20 20 20 20 0 0 0 20 -20 20 20 0 0 0 -20 -20zm0 4a16 16 0 0 1 16 16 16 16 0 0 1 -16 16 16 16 0 0 1 -16 -16 16 16 0 0 1 16 -16z" style="fill:#ffffff"/>
 <path d="m32 4c-15.512 0-28 12.488-28 28 0 0.113556 0.0112845 0.224032 0.0175781 0.335938 0.3515432-15.201757 12.69315-27.335938 27.982422-27.335938h0.001953c15.289273 0 27.630879 12.134181 27.982422 27.335938 0.006271-0.111825 0.017578-0.22249 0.017578-0.335938 0-15.512-12.488-28-28-28h-0.001953z" style="fill:#ffffff;opacity:.1"/>
 <path d="M 63.958,45.848 A 16,16 0 0 1 48,61 16,16 0 0 1 32.042,46.152 16,16 0 0 0 32,47 16,16 0 0 0 48,63 16,16 0 0 0 64,47 16,16 0 0 0 63.958,45.848 Z" style="fill-rule:evenodd;opacity:.2"/>
 <circle cx="48" cy="46" r="16" style="fill-rule:evenodd;fill:#cc5e55"/>
 <path d="m46 38-0.1764 2.1072a6.2858 6.2858 0 0 0 -1.83704 1.06252l-1.91518-0.9018-2 3.4642 1.73882 1.2076a6.2858 6.2858 0 0 0 -0.096 1.06026 6.2858 6.2858 0 0 0 0.0914 1.06474l-1.73438 1.20312 2 3.4642 1.91072-0.89956a6.2858 6.2858 0 0 0 1.8415 1.0558l0.1764 2.1116h4l0.1764-2.1072a6.2858 6.2858 0 0 0 1.83708 -1.06252l1.91516 0.9018 2-3.4642-1.73884-1.2076a6.2858 6.2858 0 0 0 0.096 -1.06026 6.2858 6.2858 0 0 0 -0.0914 -1.06474l1.73438-1.20312-2-3.4642-1.91072 0.89956a6.2858 6.2858 0 0 0 -1.842 -1.056l-0.176-2.112h-4zm2 5.7144a2.2858 2.2858 0 0 1 2.286 2.286 2.2858 2.2858 0 0 1 -2.286 2.286 2.2858 2.2858 0 0 1 -2.286 -2.286 2.2858 2.2858 0 0 1 2.286 -2.286z" style="fill:#ffffff"/>
</svg>

<svg xmlns="http://www.w3.org/2000/svg" width="64" height="64" version="1">
 <path style="opacity:0.2" d="m 4.2412762,32.190476 c -0.0118,0.334 -0.0508,0.662 -0.0508,1 0,15.512 12.4879998,28 27.9999998,28 15.512,0 28,-12.488 28,-28 0,-0.33768 -0.03904,-0.66528 -0.05078,-1 -0.528,15.042 -12.776,27 -27.95,27 -15.1744,0 -27.4219998,-11.958 -27.9499998,-27 z"/>
 <rect style="fill:#02a8f3" width="56" height="56" x="-60" y="-60" rx="28" ry="28" transform="matrix(0,-1,-1,0,0,0)"/>
 <g>
  <path style="opacity:0.2;fill-rule:evenodd" d="M 32,13 A 20,20 0 0 0 12,33 20,20 0 0 0 30,52.878906 L 30,53 32,53 A 20,20 0 0 0 52,33 20,20 0 0 0 32,13 Z m 2,4.140625 a 16,16 0 0 1 0.380859,0.05664 c 0.122171,0.202679 1.365542,2.335419 2.572266,5.574218 C 36.043028,22.853429 35.055823,22.910687 34,22.947266 l 0,-5.806641 z m -4,0.0059 0,5.800782 c -1.055823,-0.03658 -2.043028,-0.09384 -2.953125,-0.175782 1.209417,-3.246027 2.459081,-5.38595 2.576172,-5.580078 A 16,16 0 0 1 30,17.146484 Z m 9.785156,1.882813 a 16,16 0 0 1 3.5625,2.703125 c -0.606583,0.157041 -1.404786,0.324974 -2.294922,0.490234 -0.415982,-1.201897 -0.846631,-2.244125 -1.267578,-3.193359 z m -15.578125,0.01953 c -0.418406,0.944776 -0.846555,1.979938 -1.259765,3.173828 -0.888392,-0.164937 -1.685062,-0.331489 -2.291016,-0.488281 a 16,16 0 0 1 3.550781,-2.685547 z m -6.126953,6.083984 c 0.728933,0.234701 1.936161,0.569886 3.75,0.925782 C 21.469453,27.615469 21.202017,29.277588 21.078125,31 l -4.9375,0 a 16,16 0 0 1 1.939453,-5.867188 z m 27.832031,0.0039 A 16,16 0 0 1 47.853516,31 l -4.931641,0 c -0.123892,-1.722412 -0.391328,-3.384531 -0.751953,-4.941406 1.802677,-0.353706 3.010742,-0.686903 3.742187,-0.921875 z m -20.085937,1.533203 c 1.254831,0.1375 2.675524,0.223783 4.173828,0.27539 L 30,31 25.097656,31 c 0.129692,-1.498916 0.389921,-2.954777 0.728516,-4.330078 z m 12.347656,0 C 38.512423,28.045223 38.772652,29.501084 38.902344,31 L 34,31 34,26.945312 c 1.498304,-0.05161 2.918997,-0.13789 4.173828,-0.27539 z M 16.146484,35 l 4.931641,0 c 0.135348,1.881675 0.448445,3.683694 0.859375,5.363281 -1.467797,0.417796 -2.625403,0.841569 -3.449219,1.197266 A 16,16 0 0 1 16.146484,35 Z M 25.097656,35 30,35 l 0,4.054688 c -1.493765,0.0749 -2.875234,0.227082 -4.134766,0.429687 C 25.508085,38.063835 25.232242,36.555475 25.097656,35 Z M 34,35 l 4.902344,0 c -0.134586,1.555475 -0.410429,3.063835 -0.767578,4.484375 C 36.875234,39.28177 35.493765,39.129592 34,39.054688 L 34,35 Z m 8.921875,0 4.9375,0 a 16,16 0 0 1 -2.361328,6.556641 C 44.67501,41.201867 43.522868,40.778963 42.0625,40.363281 42.47343,38.683694 42.786527,36.881675 42.921875,35 Z M 30,43.056641 l 0,5.802734 a 16,16 0 0 1 -0.380859,-0.05664 C 29.498145,48.602003 28.277182,46.512285 27.080078,43.324219 27.979777,43.202557 28.952456,43.11073 30,43.056641 Z m 4,0 c 1.047544,0.05409 2.020223,0.145916 2.919922,0.267578 -1.199802,3.19525 -2.427001,5.292109 -2.542969,5.484375 A 16,16 0 0 1 34,48.853516 l 0,-5.796875 z m -10.925781,1.091797 c 0.377565,1.058011 0.762787,1.97024 1.140625,2.822265 a 16,16 0 0 1 -3.042969,-2.21875 c 0.529938,-0.197716 1.175422,-0.399962 1.902344,-0.603515 z m 17.851562,0 c 0.728636,0.204033 1.37553,0.407345 1.90625,0.605468 a 16,16 0 0 1 -3.039062,2.197266 c 0.37527,-0.847374 0.758049,-1.752575 1.132812,-2.802734 z"/>
  <path style="fill:none;stroke:#ffffff;stroke-width:4" d="m 28,49 c 0,0 -5,-8 -5,-17 0,-9 5,-17 5,-17"/>
  <path style="fill:none;stroke:#ffffff;stroke-width:4" d="m 35.999997,49 c 0,0 5,-8 5,-17 0,-9 -5,-17 -5,-17"/>
  <path style="fill:none;stroke:#ffffff;stroke-width:4" d="m 18,22 c 0,0 5,2 14,2 9,0 14,-2 14,-2"/>
  <path style="fill:none;stroke:#ffffff;stroke-width:4" d="m 18,43.000014 c 0,0 5,-3 14,-3 9,0 14,3 14,3"/>
  <path style="fill:none;stroke:#ffffff;stroke-width:4" d="m 32,14 0,36 0,0"/>
  <path style="fill:none;stroke:#ffffff;stroke-width:4" d="m 14,32 36,0"/>
  <path style="fill:#ffffff" d="M 32,12 A 20,20 0 0 0 12,32 20,20 0 0 0 32,52 20,20 0 0 0 52,32 20,20 0 0 0 32,12 Z m 0,4 A 16,16 0 0 1 48,32 16,16 0 0 1 32,48 16,16 0 0 1 16,32 16,16 0 0 1 32,16 Z"/>
 </g>
 <path style="opacity:0.1;fill:#ffffff" d="M 32 4 C 16.488 4 4 16.488 4 32 C 4 32.113556 4.0112845 32.224032 4.0175781 32.335938 C 4.3691213 17.134181 16.710728 5 32 5 L 32.001953 5 C 47.291226 5 59.632832 17.134181 59.984375 32.335938 C 59.990646 32.224113 60.001953 32.113448 60.001953 32 C 60.001953 16.488 47.513953 4 32.001953 4 L 32 4 z"/>
 <path style="opacity:0.2;fill-rule:evenodd" d="M 63.958,45.848 A 16,16 0 0 1 48,61 16,16 0 0 1 32.042,46.152 16,16 0 0 0 32,47 16,16 0 0 0 48,63 16,16 0 0 0 64,47 16,16 0 0 0 63.958,45.848 Z"/>
 <circle style="fill:#cc5e55;fill-rule:evenodd" cx="48" cy="46" r="16"/>
 <path style="fill:#ffffff" d="m 46,38 -0.1764,2.1072 a 6.2858,6.2858 0 0 0 -1.83704,1.06252 l -1.91518,-0.9018 -2,3.4642 1.73882,1.2076 a 6.2858,6.2858 0 0 0 -0.096,1.06026 6.2858,6.2858 0 0 0 0.0914,1.06474 l -1.73438,1.20312 2,3.4642 1.91072,-0.89956 a 6.2858,6.2858 0 0 0 1.8415,1.0558 l 0.1764,2.1116 4,0 0.1764,-2.1072 a 6.2858,6.2858 0 0 0 1.83708,-1.06252 l 1.91516,0.9018 2,-3.4642 -1.73884,-1.2076 a 6.2858,6.2858 0 0 0 0.096,-1.06026 6.2858,6.2858 0 0 0 -0.0914,-1.06474 l 1.73438,-1.20312 -2,-3.4642 -1.91072,0.89956 a 6.2858,6.2858 0 0 0 -1.842,-1.056 l -0.176,-2.112 -4,0 z m 2,5.7144 a 2.2858,2.2858 0 0 1 2.286,2.286 A 2.2858,2.2858 0 0 1 48,48.2864 2.2858,2.2858 0 0 1 45.714,46.0004 2.2858,2.2858 0 0 1 48,43.7144 Z"/>
</svg>
